**kern	**silbe	**harmony	**phrase	**leadinstrument	**rhyme	**timestamp	**harte
*ICvox	*	*M4/4	*	*	*	*	*M4/4
*VRlead	*	*	*	*	*	*	*
*Hstimme	*	*	*	*	*	*	*
*C:	*	*D:	*	*	*	*	*D:
*clefG2	*	*	*	*	*	*	*
r;	.	1r;	.	r	.	0	N.C.
*D:	*	*	*	*	*	*	*
*M4/4	*	*	*	*	*	*	*
*clefG2	*	*	*	*	*	*	*
r;	.	1r;	.	r	.	1.138	N.C.
=1	=1	=1	=1	=1	=1	=1	=1
4f	Please	1N	.	voice	.	3.078	N.C.
4f	please	.	.	.	.	.	.
4f	tell	.	.	.	.	.	.
8f	me	.	.	.	.	.	.
[8g	now	.	.	.	.	.	.
=2	=2	=2	=2	=2	=2	=2	=2
4g]	_	1N	.	voice	.	5.018	N.C.
4r	.	.	.	.	.	.	.
2r	.	.	.	.	.	.	.
=3	=3	=3	=3	=3	=3	=3	=3
4f	Please	1N	.	voice	.	6.959	N.C.
4f	please	.	.	.	.	.	.
4f	tell	.	.	.	.	.	.
8f	me	.	.	.	.	.	.
[8g	now	.	.	.	.	.	.
=4	=4	=4	=4	=4	=4	=4	=4
4g]	_	1N	.	voice	.	8.899	N.C.
4r	.	.	.	.	.	.	.
2r	.	.	.	.	.	.	.
=5	=5	=5	=5	=5	=5	=5	=5
4f	Please	1N	.	voice	.	10.84	N.C.
4f	please	.	.	.	.	.	.
4f	tell	.	.	.	.	.	.
8f	me	.	.	.	.	.	.
[8g	now	.	.	.	.	.	.
=6	=6	=6	=6	=6	=6	=6	=6
4g]	_	1N	.	voice	.	12.78	N.C.
4r	.	.	.	.	.	.	.
2r	.	.	.	.	.	.	.
=7	=7	=7	=7	=7	=7	=7	=7
4f	Please	1N	.	voice	.	14.72	N.C.
4f	please	.	.	.	.	.	.
4f	tell	.	.	.	.	.	.
8f	me	.	.	.	.	.	.
[8g	now	.	.	.	.	.	.
=8	=8	=8	=8	=8	=8	=8	=8
4g]	_	1N	.	voice	.	16.418	N.C.
4r	.	.	.	.	.	.	.
2r	.	.	.	.	.	.	.
=9	=9	=9	=9	=9	=9	=9	=9
*>Letter>B	*>Letter>B	*>Letter>B	*>Letter>B	*>Letter>B	*>Letter>B	*>Letter>B	*>Letter>B
*>Label>Intro	*>Label>Intro	*>Label>Intro	*>Label>Intro	*>Label>Intro	*>Label>Intro	*>Label>Intro	*>Label>Intro
1r	.	2DM	newline	guitar	.	16.661	D:maj
.	.	2DM	.	guitar	.	17.629	D:maj/b7
=10	=10	=10	=10	=10	=10	=10	=10
1r	.	2DM	.	guitar	.	18.598	D:maj
.	.	2DM	.	guitar	.	19.566	D:maj/b7
=11	=11	=11	=11	=11	=11	=11	=11
1r	.	2DM	.	guitar	.	20.535	D:maj
.	.	2DM	.	guitar	.	21.503	D:maj/b7
=12	=12	=12	=12	=12	=12	=12	=12
1r	.	2DM	.	guitar	.	22.472	D:maj
.	.	2DM	.	guitar	.	23.44	D:maj/b7
=13	=13	=13	=13	=13	=13	=13	=13
1r	.	2DM	newline	guitar	.	24.409	D:maj
.	.	2DM	.	guitar	.	25.379	D:maj/b7
=14	=14	=14	=14	=14	=14	=14	=14
1r	.	2DM	.	guitar	.	26.349	D:maj
.	.	2DM	.	guitar	.	27.319	D:maj/b7
=15	=15	=15	=15	=15	=15	=15	=15
1r	.	1GM	.	guitar	.	28.289	G:maj
=16	=16	=16	=16	=16	=16	=16	=16
1r	.	1CM	.	guitar	.	30.229	C:maj
=17	=17	=17	=17	=17	=17	=17	=17
1r	.	2DM	newline	guitar	.	32.17	D:maj
.	.	2DM	.	guitar	.	33.106	D:maj/b7
=18	=18	=18	=18	=18	=18	=18	=18
1r	.	2DM	.	guitar	.	34.043	D:maj
.	.	2DM	.	guitar	.	34.979	D:maj/b7
=19	=19	=19	=19	=19	=19	=19	=19
*>Letter>B	*>Letter>B	*>Letter>B	*>Letter>B	*>Letter>B	*>Letter>B	*>Letter>B	*>Letter>B
*>Label>Verse	*>Label>Verse	*>Label>Verse	*>Label>Verse	*>Label>Verse	*>Label>Verse	*>Label>Verse	*>Label>Verse
8r	.	2DM	newline	voice	.	35.916	D:maj
8A	I	.	.	.	.	.	.
8d	made	.	.	.	.	.	.
16A	a	.	.	.	.	.	.
16c	break	.	.	.	.	.	.
8r	.	2DM	.	voice	.	36.882	D:maj/b7
8c	I	.	.	.	.	.	.
4B	_	.	.	.	.	.	.
=20	=20	=20	=20	=20	=20	=20	=20
8c	run	2DM	.	voice	.	37.848	D:maj
8d	out	.	.	.	.	.	.
8r	.	.	.	.	.	.	.
[8g	yes-	.	.	.	.	.	.
8g]	_	2DM	.	voice	.	38.814	D:maj/b7
8f#	-ter-	.	.	.	.	.	.
4d	-day	.	.	.	A	.	.
=21	=21	=21	=21	=21	=21	=21	=21
4r	.	2DM	.	voice	.	39.78	D:maj
8d	tried	.	.	.	.	.	.
8A	to	.	.	.	.	.	.
4c	find	2DM	.	voice	.	40.745	D:maj/b7
8B	my	.	.	.	.	.	.
[8c	moun-	.	.	.	.	.	.
=22	=22	=22	=22	=22	=22	=22	=22
8c]	_	2DM	.	voice	.	41.711	D:maj
4d	-tain	.	.	.	.	.	.
[8g	hi-	.	.	.	.	.	.
8g]	_	2DM	.	voice	.	42.677	D:maj/b7
8f#	-dea-	.	.	.	.	.	.
[4d	-way	.	.	.	A	.	.
=23	=23	=23	=23	=23	=23	=23	=23
4d]	_	1GM	newline	voice	.	43.643	G:maj
4r	.	.	.	.	.	.	.
8r	.	.	.	.	.	.	.
8d	May-	.	.	.	.	.	.
8A	-be	.	.	.	.	.	.
[8c	next	.	.	.	.	.	.
=24	=24	=24	=24	=24	=24	=24	=24
8c]	_	1CM	.	voice	.	45.571	C:maj
8c	year	.	.	.	.	.	.
4r	.	.	.	.	.	.	.
8B	may-	.	.	.	.	.	.
4B	-be	.	.	.	.	.	.
8B	no	.	.	.	.	.	.
=25	=25	=25	=25	=25	=25	=25	=25
4.B	go	2DM	.	voice	.	47.499	D:maj
[8A	_	.	.	.	.	.	.
2A]	_	2DM	.	voice	.	48.462	D:maj/b7
=26	=26	=26	=26	=26	=26	=26	=26
1r	.	2DM	.	voice	.	49.426	D:maj
.	.	2DM	.	voice	.	50.39	D:maj/b7
=27	=27	=27	=27	=27	=27	=27	=27
8r	.	2DM	newline	voice	.	51.354	D:maj
8a	I	.	.	.	.	.	.
8a	know	.	.	.	.	.	.
8a	you're	.	.	.	.	.	.
8a	watch-	2DM	.	voice	.	52.317	D:maj/b7
4d	-ing	.	.	.	.	.	.
8A	me	.	.	.	.	.	.
=28	=28	=28	=28	=28	=28	=28	=28
6c	e-	2DM	.	voice	.	53.28	D:maj
6c	-ve-	.	.	.	.	.	.
6c	-ry	.	.	.	.	.	.
16c	mi-	2DM	.	voice	.	54.243	D:maj/b7
16c	-nute	.	.	.	.	.	.
4c	of	.	.	.	.	.	.
8c	the	.	.	.	.	.	.
=29	=29	=29	=29	=29	=29	=29	=29
4.d	day	2DM	.	voice	A	55.205	D:maj
8d	yeah	.	.	.	.	.	.
4c	_	2DM	.	voice	.	56.168	D:maj/b7
4r	.	.	.	.	.	.	.
=30	=30	=30	=30	=30	=30	=30	=30
2r	.	2DM	.	voice	.	57.131	D:maj
8r	.	2DM	.	voice	.	58.094	D:maj/b7
8a	I've	.	.	.	.	.	.
8a	seen	.	.	.	.	.	.
8a	the	.	.	.	.	.	.
=31	=31	=31	=31	=31	=31	=31	=31
6a	signs	2DM	newline	voice	.	59.057	D:maj
6a	and	.	.	.	.	.	.
6a	the	.	.	.	.	.	.
6a	looks	2DM	.	voice	.	60.021	D:maj/b7
6d	and	.	.	.	.	.	.
6A	the	.	.	.	.	.	.
=32	=32	=32	=32	=32	=32	=32	=32
6c	pic-	2DM	.	voice	.	60.985	D:maj
6c	-tures	.	.	.	.	.	.
6B	that	.	.	.	.	.	.
16c	give	2DM	.	voice	.	61.949	D:maj/b7
16B	your	.	.	.	.	.	.
4c	game	.	.	.	.	.	.
8c	a-	.	.	.	.	.	.
=33	=33	=33	=33	=33	=33	=33	=33
4.d	-way	2DM	.	voice	A	62.913	D:maj
8d	yeah	.	.	.	.	.	.
4c	_	2DM	.	voice	.	63.877	D:maj/b7
4r	.	.	.	.	.	.	.
=34	=34	=34	=34	=34	=34	=34	=34
2r	.	2DM	.	voice	.	64.841	D:maj
8r	.	2DM	.	voice	.	65.805	D:maj/b7
8d	There's	.	.	.	.	.	.
8d	a	.	.	.	.	.	.
[8g	dream	.	.	.	B	.	.
=35	=35	=35	=35	=35	=35	=35	=35
*>Letter>C	*>Letter>C	*>Letter>C	*>Letter>C	*>Letter>C	*>Letter>C	*>Letter>C	*>Letter>C
*>Label>Prechorus	*>Label>Prechorus	*>Label>Prechorus	*>Label>Prechorus	*>Label>Prechorus	*>Label>Prechorus	*>Label>Prechorus	*>Label>Prechorus
4g]	_	1GM	newline	voice	.	66.769	G:maj
8g	that	.	.	.	.	.	.
[8f	strings	.	.	.	B	.	.
4f]	_	.	.	.	.	.	.
8f	the	.	.	.	.	.	.
[8e	road	.	.	.	C	.	.
=36	=36	=36	=36	=36	=36	=36	=36
4e]	_	1CM	.	voice	.	68.69	C:maj
8r	.	.	.	.	.	.	.
8d	with	.	.	.	.	.	.
8g	bro-	.	.	.	.	.	.
4.g	-ken	.	.	.	.	.	.
=37	=37	=37	=37	=37	=37	=37	=37
4f#	glass	1DM	.	voice	.	70.611	D:maj
8r	.	.	.	.	.	.	.
8f#	for	.	.	.	.	.	.
4e	us	.	.	.	.	.	.
8e	to	.	.	.	.	.	.
[8d	hold	.	.	.	C	.	.
=38	=38	=38	=38	=38	=38	=38	=38
4d]	_	1DM	.	voice	.	72.532	D:maj
4r	.	.	.	.	.	.	.
8r	.	.	.	.	.	.	.
8f	And	.	.	.	.	.	.
8f	I	.	.	.	.	.	.
[8g	cut	.	.	.	.	.	.
=39	=39	=39	=39	=39	=39	=39	=39
8g]	_	1GM	newline	voice	.	74.453	G:maj
4g	so	.	.	.	.	.	.
[8f	far	.	.	.	.	.	.
4f]	_	.	.	.	.	.	.
8f	be-	.	.	.	.	.	.
[8e	-fore	.	.	.	.	.	.
=40	=40	=40	=40	=40	=40	=40	=40
4e]	_	1CM	.	voice	.	76.385	C:maj
4e	I	.	.	.	.	.	.
4d	had	.	.	.	.	.	.
8d	to	.	.	.	.	.	.
[8c	say	.	.	.	A	.	.
=41	=41	=41	=41	=41	=41	=41	=41
1c]	_	1FM	.	voice	.	78.316	F:maj
=42	=42	=42	=42	=42	=42	=42	=42
1r	.	1CM	.	voice	.	80.247	C:maj
=43	=43	=43	=43	=43	=43	=43	=43
*>Letter>D	*>Letter>D	*>Letter>D	*>Letter>D	*>Letter>D	*>Letter>D	*>Letter>D	*>Letter>D
*>Label>Chorus	*>Label>Chorus	*>Label>Chorus	*>Label>Chorus	*>Label>Chorus	*>Label>Chorus	*>Label>Chorus	*>Label>Chorus
4d	Please	1DM	newline	.	.	82.179	D:maj
4d	please	.	.	.	.	.	.
8d	tell	.	.	.	.	.	.
4f	me	.	.	.	.	.	.
[8g	now	.	.	.	.	.	.
=44	=44	=44	=44	=44	=44	=44	=44
4g]	_	2FM	.	.	.	84.101	F:maj
4r	.	.	.	.	.	.	.
8r	.	2CM	.	.	.	85.062	C:maj
8g	is	.	.	.	.	.	.
4g	there	.	.	.	.	.	.
=45	=45	=45	=45	=45	=45	=45	=45
4a	some-	1AM	.	.	.	86.023	A:5
4g	-thing	.	.	.	.	.	.
8f	I	.	.	.	.	.	.
4f	should	.	.	.	.	.	.
[8g	know	.	.	.	C	.	.
=46	=46	=46	=46	=46	=46	=46	=46
4g]	_	2GM	.	.	.	87.944	G:sus4
4r	.	.	.	.	.	.	.
8r	.	2GM	.	.	.	88.905	G:maj
8d	Is	.	.	.	.	.	.
4d	there	.	.	.	.	.	.
=47	=47	=47	=47	=47	=47	=47	=47
4d	some-	1DM	.	.	.	89.866	D:maj
4d	-thing	.	.	.	.	.	.
8d	I	.	.	.	.	.	.
4f	should	.	.	.	.	.	.
[8g	say	.	.	.	A	.	.
=48	=48	=48	=48	=48	=48	=48	=48
4g]	_	2FM	.	.	.	91.788	F:maj
4r	.	.	.	.	.	.	.
4r	.	2CM	.	.	.	92.749	C:maj
8f	that	.	.	.	.	.	.
8g	will	.	.	.	.	.	.
=49	=49	=49	=49	=49	=49	=49	=49
4a	make	1AM	.	.	.	93.71	A:5
4g	you	.	.	.	.	.	.
8f	come	.	.	.	.	.	.
4f	my	.	.	.	.	.	.
[8g	way	.	.	.	A	.	.
=50	=50	=50	=50	=50	=50	=50	=50
4g]	_	2GM	.	.	.	95.632	G:sus4
4r	.	.	.	.	.	.	.
8r	.	2GM	.	.	.	96.593	G:maj
8f	Do	.	.	.	.	.	.
8f	you	.	.	.	.	.	.
[8g	feel	.	.	.	.	.	.
=51	=51	=51	=51	=51	=51	=51	=51
4g]	_	1GM	newline	.	.	97.554	G:maj
8g	the	.	.	.	.	.	.
[8f	same	.	.	.	.	.	.
4f]	_	.	.	.	.	.	.
8f	cause	.	.	.	.	.	.
[8e	you	.	.	.	.	.	.
=52	=52	=52	=52	=52	=52	=52	=52
4e]	_	1CM	.	.	.	99.479	C:maj
4e	don't	.	.	.	.	.	.
8d	let	.	.	.	.	.	.
4c	it	.	.	.	.	.	.
[8d	show	.	.	.	C	.	.
=53	=53	=53	=53	=53	=53	=53	=53
2.d]	_	2DM	.	.	.	101.404	D:maj
.	.	2DM	.	.	.	102.367	D:maj/b7
4r	.	.	.	.	.	.	.
=54	=54	=54	=54	=54	=54	=54	=54
1r	.	2DM	.	.	.	103.329	D:maj
.	.	2DM	.	.	.	104.291	D:maj/b7
=55	=55	=55	=55	=55	=55	=55	=55
1r	.	2DM	.	.	.	105.254	D:maj
.	.	2DM	.	.	.	106.216	D:maj/b7
=56	=56	=56	=56	=56	=56	=56	=56
1r	.	2DM	.	.	.	107.179	D:maj
.	.	2DM	.	.	.	108.141	D:maj/b7
=57	=57	=57	=57	=57	=57	=57	=57
*>Letter>B	*>Letter>B	*>Letter>B	*>Letter>B	*>Letter>B	*>Letter>B	*>Letter>B	*>Letter>B
*>Label>Verse	*>Label>Verse	*>Label>Verse	*>Label>Verse	*>Label>Verse	*>Label>Verse	*>Label>Verse	*>Label>Verse
4r	.	2DM	newline	.	.	109.104	D:maj
8d	Peo-	.	.	.	.	.	.
8A	-ple	.	.	.	.	.	.
4c	stare	2DM	.	.	.	110.074	D:maj/b7
8B	and	.	.	.	.	.	.
[8c	cross	.	.	.	.	.	.
=58	=58	=58	=58	=58	=58	=58	=58
8c]	_	2DM	.	.	.	111.045	D:maj
4d	the	.	.	.	.	.	.
[8g	road	.	.	.	.	.	.
8g]	_	2DM	.	.	.	112.016	D:maj/b7
8f#	from	.	.	.	.	.	.
4d	me	.	.	.	.	.	.
=59	=59	=59	=59	=59	=59	=59	=59
8r	.	2DM	.	.	.	112.987	D:maj
8A	And	.	.	.	.	.	.
16d	jun-	.	.	.	.	.	.
16A	-gle	.	.	.	.	.	.
[8c	drums	.	.	.	.	.	.
8c]	_	2DM	.	.	.	113.958	D:maj/b7
8c	they	.	.	.	.	.	.
4B	all	.	.	.	.	.	.
=60	=60	=60	=60	=60	=60	=60	=60
4c	clear	2DM	.	.	.	114.929	D:maj
8d	the	.	.	.	.	.	.
[8g	way	.	.	.	.	.	.
8g]	_	2DM	.	.	.	115.9	D:maj/b7
8f#	for	.	.	.	.	.	.
4d	me	.	.	.	.	.	.
=61	=61	=61	=61	=61	=61	=61	=61
4r	.	1GM	newline	.	.	116.871	G:maj
8d	Can	.	.	.	.	.	.
8A	you	.	.	.	.	.	.
8d	read	.	.	.	.	.	.
4d	my	.	.	.	.	.	.
[8c	mind	.	.	.	.	.	.
=62	=62	=62	=62	=62	=62	=62	=62
8c]	_	1CM	.	.	.	118.774	C:maj
4c	can	.	.	.	.	.	.
8B	you	.	.	.	.	.	.
8c	see	.	.	.	.	.	.
4B	in	.	.	.	.	.	.
8B	the	.	.	.	.	.	.
=63	=63	=63	=63	=63	=63	=63	=63
4.B	snow	2DM	.	.	C	120.678	D:maj
[8A	_	.	.	.	.	.	.
2A]	_	2DM	.	.	.	121.63	D:maj/b7
=64	=64	=64	=64	=64	=64	=64	=64
1r	.	2DM	.	.	.	122.582	D:maj
.	.	2DM	.	.	.	123.534	D:maj/b7
=65	=65	=65	=65	=65	=65	=65	=65
8r	.	2DM	newline	.	.	124.486	D:maj
8a	And	.	.	.	.	.	.
16a	fi-	.	.	.	.	.	.
16a	-re-	.	.	.	.	.	.
8a	-y	.	.	.	.	.	.
6a	de-	2DM	.	.	.	125.454	D:maj/b7
6d	-mons	.	.	.	.	.	.
6A	all	.	.	.	.	.	.
=66	=66	=66	=66	=66	=66	=66	=66
6c	dance	2DM	.	.	.	126.421	D:maj
6c	when	.	.	.	.	.	.
6B	you	.	.	.	.	.	.
6c	walk	2DM	.	.	.	127.389	D:maj/b7
6B	through	.	.	.	.	.	.
6c	that	.	.	.	.	.	.
=67	=67	=67	=67	=67	=67	=67	=67
4.d	door	2DM	.	.	C	128.357	D:maj
16c	_	.	.	.	.	.	.
16d	_	.	.	.	.	.	.
2c	_	2DM	.	.	.	129.325	D:maj/b7
=68	=68	=68	=68	=68	=68	=68	=68
2r	.	2DM	.	.	.	130.293	D:maj
8r	.	2DM	.	.	.	131.261	D:maj/b7
8a	Don't	.	.	.	.	.	.
8a	say	.	.	.	.	.	.
8a	you're	.	.	.	.	.	.
=69	=69	=69	=69	=69	=69	=69	=69
8a	ea-	2DM	newline	.	.	132.228	D:maj
4a	-sy	.	.	.	.	.	.
[8a	on	.	.	.	.	.	.
8a]	_	2DM	.	.	.	133.185	D:maj/b7
[8d	me	.	.	.	.	.	.
8d]	_	.	.	.	.	.	.
8r	.	.	.	.	.	.	.
=70	=70	=70	=70	=70	=70	=70	=70
16c	you're	2DM	.	.	.	134.142	D:maj
16B	a-	.	.	.	.	.	.
[8c	-bout	.	.	.	.	.	.
8c]	_	.	.	.	.	.	.
8c	as	.	.	.	.	.	.
8c	ea-	2DM	.	.	.	135.098	D:maj/b7
8c	-sy	.	.	.	.	.	.
8c	as	.	.	.	.	.	.
8c	a	.	.	.	.	.	.
=71	=71	=71	=71	=71	=71	=71	=71
8d	nu-	2DM	.	.	.	136.055	D:maj
8d	-cle-	.	.	.	.	.	.
8d	-ar	.	.	.	.	.	.
[8c	war	.	.	.	C	.	.
4c]	_	2DM	.	.	.	137.012	D:maj/b7
4r	.	.	.	.	.	.	.
=72	=72	=72	=72	=72	=72	=72	=72
2r	.	2DM	.	.	.	137.968	D:maj
8r	.	2DM	.	.	.	138.925	D:maj/b7
8e	There's	.	.	.	.	.	.
8f#	a	.	.	.	.	.	.
[8g	dream	.	.	.	B	.	.
=73	=73	=73	=73	=73	=73	=73	=73
*>Letter>C	*>Letter>C	*>Letter>C	*>Letter>C	*>Letter>C	*>Letter>C	*>Letter>C	*>Letter>C
*>Label>Prechorus	*>Label>Prechorus	*>Label>Prechorus	*>Label>Prechorus	*>Label>Prechorus	*>Label>Prechorus	*>Label>Prechorus	*>Label>Prechorus
4g]	_	1GM	newline	.	.	139.882	G:maj
8g	that	.	.	.	.	.	.
[8f	strings	.	.	.	B	.	.
4f]	_	.	.	.	.	.	.
8f	the	.	.	.	.	.	.
[8e	road	.	.	.	C	.	.
=74	=74	=74	=74	=74	=74	=74	=74
4e]	_	1CM	.	.	.	141.819	C:maj
8r	.	.	.	.	.	.	.
8d	with	.	.	.	.	.	.
8g	bro-	.	.	.	.	.	.
4.g	-ken	.	.	.	.	.	.
=75	=75	=75	=75	=75	=75	=75	=75
4f#	glass	1DM	.	.	.	143.756	D:maj
8r	.	.	.	.	.	.	.
8f#	for	.	.	.	.	.	.
4e	us	.	.	.	.	.	.
8e	to	.	.	.	.	.	.
[8d	hold	.	.	.	C	.	.
=76	=76	=76	=76	=76	=76	=76	=76
4d]	_	1DM	.	.	.	145.694	D:maj
4r	.	.	.	.	.	.	.
8r	.	.	.	.	.	.	.
8f	And	.	.	.	.	.	.
8f	I	.	.	.	.	.	.
[8g	cut	.	.	.	.	.	.
=77	=77	=77	=77	=77	=77	=77	=77
8g]	_	1GM	newline	.	.	147.631	G:maj
4g	so	.	.	.	.	.	.
[8f	far	.	.	.	.	.	.
4f]	_	.	.	.	.	.	.
8f	be-	.	.	.	.	.	.
[8e	-fore	.	.	.	.	.	.
=78	=78	=78	=78	=78	=78	=78	=78
4e]	_	1CM	.	.	.	149.58	C:maj
4e	I	.	.	.	.	.	.
4d	had	.	.	.	.	.	.
8d	to	.	.	.	.	.	.
[8c	say	.	.	.	.	.	.
=79	=79	=79	=79	=79	=79	=79	=79
1c]	_	1FM	.	.	.	151.529	F:maj
=80	=80	=80	=80	=80	=80	=80	=80
1r	.	1CM	.	.	.	153.479	C:maj
=81	=81	=81	=81	=81	=81	=81	=81
*>Letter>D	*>Letter>D	*>Letter>D	*>Letter>D	*>Letter>D	*>Letter>D	*>Letter>D	*>Letter>D
*>Label>Chorus	*>Label>Chorus	*>Label>Chorus	*>Label>Chorus	*>Label>Chorus	*>Label>Chorus	*>Label>Chorus	*>Label>Chorus
4d	Please	1DM	newline	.	.	155.428	D:maj
4d	please	.	.	.	.	.	.
8d	tell	.	.	.	.	.	.
4f	me	.	.	.	.	.	.
[8g	now	.	.	.	.	.	.
=82	=82	=82	=82	=82	=82	=82	=82
4g]	_	2FM	.	.	.	157.337	F:maj
4r	.	.	.	.	.	.	.
8r	.	2CM	.	.	.	158.292	C:maj
8g	is	.	.	.	.	.	.
4g	there	.	.	.	.	.	.
=83	=83	=83	=83	=83	=83	=83	=83
4a	some-	1AM	.	.	.	159.247	A:5
4g	-thing	.	.	.	.	.	.
8f	I	.	.	.	.	.	.
4f	should	.	.	.	.	.	.
[8g	know	.	.	.	C	.	.
=84	=84	=84	=84	=84	=84	=84	=84
4g]	_	2GM	.	.	.	161.156	G:sus4
4r	.	.	.	.	.	.	.
8r	.	2GM	.	.	.	162.11	G:maj
8d	Is	.	.	.	.	.	.
4d	there	.	.	.	.	.	.
=85	=85	=85	=85	=85	=85	=85	=85
4d	some-	1DM	.	.	.	163.065	D:maj
4d	-thing	.	.	.	.	.	.
8d	I	.	.	.	.	.	.
4f	should	.	.	.	.	.	.
[8g	say	.	.	.	A	.	.
=86	=86	=86	=86	=86	=86	=86	=86
4g]	_	2FM	.	.	.	164.974	F:maj
4r	.	.	.	.	.	.	.
4r	.	2CM	.	.	.	165.929	C:maj
8f	that	.	.	.	.	.	.
8g	will	.	.	.	.	.	.
=87	=87	=87	=87	=87	=87	=87	=87
4a	make	1AM	.	.	.	166.884	A:5
4g	you	.	.	.	.	.	.
8f	come	.	.	.	.	.	.
4f	my	.	.	.	.	.	.
[8g	way	.	.	.	A	.	.
=88	=88	=88	=88	=88	=88	=88	=88
4g]	_	2GM	.	.	.	168.793	G:sus4
4r	.	.	.	.	.	.	.
8r	.	2GM	.	.	.	169.747	G:maj
8f	Do	.	.	.	.	.	.
8f	you	.	.	.	.	.	.
[8g	feel	.	.	.	.	.	.
=89	=89	=89	=89	=89	=89	=89	=89
4g]	_	1GM	newline	voice	.	170.702	G:maj
8g	the	.	.	.	.	.	.
[8f	same	.	.	.	A	.	.
4f]	_	.	.	.	.	.	.
8f	cause	.	.	.	.	.	.
[8e	you	.	.	.	.	.	.
=90	=90	=90	=90	=90	=90	=90	=90
4e]	_	1CM	.	voice	.	172.625	C:maj
4e	don't	.	.	.	.	.	.
8d	let	.	.	.	.	.	.
4c	it	.	.	.	.	.	.
[8d	show	.	.	.	C	.	.
=91	=91	=91	=91	=91	=91	=91	=91
2.d]	_	2DM	.	voice	.	174.549	D:maj
.	.	2DM	.	voice	.	175.51	D:maj/b7
4r	.	.	.	.	.	.	.
=92	=92	=92	=92	=92	=92	=92	=92
1r	.	2DM	.	voice	.	176.472	D:maj
.	.	2DM	.	voice	.	177.433	D:maj/b7
=93	=93	=93	=93	=93	=93	=93	=93
*>Letter>E	*>Letter>E	*>Letter>E	*>Letter>E	*>Letter>E	*>Letter>E	*>Letter>E	*>Letter>E
*>Label>Interlude	*>Label>Interlude	*>Label>Interlude	*>Label>Interlude	*>Label>Interlude	*>Label>Interlude	*>Label>Interlude	*>Label>Interlude
1r	.	1Bm	newline	synthesizer	.	178.395	B:min
=94	=94	=94	=94	=94	=94	=94	=94
1r	.	1CM	.	synthesizer	.	180.326	C:maj
=95	=95	=95	=95	=95	=95	=95	=95
1r	.	1DM	.	synthesizer	.	182.258	D:maj
=96	=96	=96	=96	=96	=96	=96	=96
1r	.	1Em	.	synthesizer	.	184.189	E:min
=97	=97	=97	=97	=97	=97	=97	=97
1r	.	1Bm	.	synthesizer	.	186.121	B:min
=98	=98	=98	=98	=98	=98	=98	=98
1r	.	1CM	.	synthesizer	.	188.052	C:maj
=99	=99	=99	=99	=99	=99	=99	=99
1r	.	1DM	.	synthesizer	.	189.983	D:maj
=100	=100	=100	=100	=100	=100	=100	=100
1r	.	1Em	.	synthesizer	.	191.915	E:min
=101	=101	=101	=101	=101	=101	=101	=101
1r	.	1Bm	newline	synthesizer	.	193.846	B:min
=102	=102	=102	=102	=102	=102	=102	=102
1r	.	1CM	.	synthesizer	.	195.763	C:maj
=103	=103	=103	=103	=103	=103	=103	=103
1r	.	1DM	.	synthesizer	.	197.68	D:maj
=104	=104	=104	=104	=104	=104	=104	=104
1r	.	1CM	.	synthesizer	.	199.596	C:maj
=105	=105	=105	=105	=105	=105	=105	=105
1r	.	1CM	.	synthesizer	.	201.513	C:maj
=106	=106	=106	=106	=106	=106	=106	=106
*>Letter>D2	*>Letter>D2	*>Letter>D2	*>Letter>D2	*>Letter>D2	*>Letter>D2	*>Letter>D2	*>Letter>D2
*>Label>Outro	*>Label>Outro	*>Label>Outro	*>Label>Outro	*>Label>Outro	*>Label>Outro	*>Label>Outro	*>Label>Outro
4d	Please	1DM	newline	voice	.	203.43	D:sus4(b7)
4d	please	.	.	.	.	.	.
8d	tell	.	.	.	.	.	.
4f	me	.	.	.	.	.	.
[8g	now	.	.	.	.	.	.
=107	=107	=107	=107	=107	=107	=107	=107
4g]	_	2GM	.	voice	.	205.351	G:maj
4r	.	.	.	.	.	.	.
8r	.	2CM	.	voice	.	206.312	C:maj
8g	is	.	.	.	.	.	.
4g	there	.	.	.	.	.	.
=108	=108	=108	=108	=108	=108	=108	=108
4a	some-	1DM	.	voice	.	207.272	D:sus4(b7)
4g	-thing	.	.	.	.	.	.
8f	I	.	.	.	.	.	.
4f	should	.	.	.	.	.	.
[8g	know	.	.	.	C	.	.
=109	=109	=109	=109	=109	=109	=109	=109
4g]	_	2GM	.	voice	.	209.194	G:maj
4r	.	.	.	.	.	.	.
8r	.	2CM	.	voice	.	210.154	C:maj
8d	Is	.	.	.	.	.	.
4d	there	.	.	.	.	.	.
=110	=110	=110	=110	=110	=110	=110	=110
4d	some-	1DM	.	voice	.	211.115	D:sus4(b7)
4d	-thing	.	.	.	.	.	.
8d	I	.	.	.	.	.	.
4f	should	.	.	.	.	.	.
[8g	say	.	.	.	A	.	.
=111	=111	=111	=111	=111	=111	=111	=111
4g]	_	2GM	.	voice	.	213.036	G:maj
4r	.	.	.	.	.	.	.
4r	.	2CM	.	voice	.	213.997	C:maj
8f	that	.	.	.	.	.	.
8g	will	.	.	.	.	.	.
=112	=112	=112	=112	=112	=112	=112	=112
4a	make	1DM	.	voice	.	214.957	D:sus4(b7)
4g	you	.	.	.	.	.	.
8f	come	.	.	.	.	.	.
4f	my	.	.	.	.	.	.
[8g	way	.	.	.	A	.	.
=113	=113	=113	=113	=113	=113	=113	=113
4g]	_	2GM	.	voice	.	216.879	G:maj
4r	.	.	.	.	.	.	.
2r	.	2CM	.	voice	.	217.839	C:maj
=114	=114	=114	=114	=114	=114	=114	=114
4d	Please	1DM	.	voice	.	218.8	D:sus4(b7)
4d	please	.	.	.	.	.	.
4d	tell	.	.	.	.	.	.
8f	me	.	.	.	.	.	.
[8g	now	.	.	.	.	.	.
=115	=115	=115	=115	=115	=115	=115	=115
4g]	_	2GM	.	voice	.	220.721	G:maj
4r	.	.	.	.	.	.	.
4r	.	2CM	.	voice	.	221.682	C:maj
8f	Can	.	.	.	.	.	.
8g	you	.	.	.	.	.	.
=116	=116	=116	=116	=116	=116	=116	=116
4a	see	1DM	.	voice	.	222.643	D:sus4(b7)
4g	what	.	.	.	.	.	.
8f	makes	.	.	.	.	.	.
4f	me	.	.	.	.	.	.
[8g	blow	.	.	.	C	.	.
=117	=117	=117	=117	=117	=117	=117	=117
4g]	_	2GM	.	voice	.	224.564	G:maj
4r	.	.	.	.	.	.	.
4r	.	2CM	.	voice	.	225.525	C:maj
8d	Can	.	.	.	.	.	.
8c	you	.	.	.	.	.	.
=118	=118	=118	=118	=118	=118	=118	=118
4d	see	1DM	.	voice	.	226.485	D:sus4(b7)
4d	how	.	.	.	.	.	.
8d	much	.	.	.	.	.	.
4f	I'd	.	.	.	.	.	.
[8g	die	.	.	.	D	.	.
=119	=119	=119	=119	=119	=119	=119	=119
4g]	_	2GM	.	voice	.	228.406	G:maj
4r	.	.	.	.	.	.	.
4r	.	2CM	.	voice	.	229.367	C:maj
8f	Ever-	.	.	.	.	.	.
8g	-y	.	.	.	.	.	.
=120	=120	=120	=120	=120	=120	=120	=120
4a	time	1DM	.	voice	.	230.328	D:sus4(b7)
4g	it	.	.	.	.	.	.
8f	pass-	.	.	.	.	.	.
4f	-es	.	.	.	.	.	.
[8g	by	.	.	.	D	.	.
=121	=121	=121	=121	=121	=121	=121	=121
4g]	_	2GM	.	voice	.	232.249	G:maj
4r	.	.	.	.	.	.	.
2r	.	2CM	.	voice	.	233.21	C:maj
=122	=122	=122	=122	=122	=122	=122	=122
4d	Please	1DM	newline	fadeout voice	.	234.17	D:sus4(b7)
4d	please	.	.	.	.	.	.
4d	tell	.	.	.	.	.	.
8f	me	.	.	.	.	.	.
[8g	now	.	.	.	.	.	.
=123	=123	=123	=123	=123	=123	=123	=123
4g]	_	2GM	.	fadeout voice	.	235.964	G:maj
4r	.	.	.	.	.	.	.
4r	.	2CM	.	fadeout voice	.	236.862	C:maj
8f	What	.	.	.	.	.	.
8g	it	.	.	.	.	.	.
=124	=124	=124	=124	=124	=124	=124	=124
4a	takes	1DM	.	fadeout voice	.	237.759	D:sus4(b7)
4g	to	.	.	.	.	.	.
8f	make	.	.	.	.	.	.
4f	it	.	.	.	.	.	.
[8g	show	.	.	.	C	.	.
=125	=125	=125	=125	=125	=125	=125	=125
4g]	_	2GM	.	fadeout voice	.	239.553	G:maj
4r	.	.	.	.	.	.	.
4r	.	2CM	.	fadeout voice	.	240.45	C:maj
8d	Is	.	.	.	.	.	.
8c	there	.	.	.	.	.	.
=126	=126	=126	=126	=126	=126	=126	=126
4d	some-	1DM	.	fadeout voice	.	241.347	D:sus4(b7)
4d	-thing	.	.	.	.	.	.
8d	I	.	.	.	.	.	.
4f	should	.	.	.	.	.	.
[8g	know	.	.	.	C	.	.
=127	=127	=127	=127	=127	=127	=127	=127
4g]	_	2GM	.	fadeout voice	.	243.141	G:maj
4r	.	.	.	.	.	.	.
4r	.	2CM	.	fadeout voice	.	244.038	C:maj
8f	Is	.	.	.	.	.	.
8g	there	.	.	.	.	.	.
=128	=128	=128	=128	=128	=128	=128	=128
4a	some-	1DM	.	fadeout voice	.	244.935	D:sus4(b7)
4g	-thing	.	.	.	.	.	.
8f	I	.	.	.	.	.	.
4f	should	.	.	.	.	.	.
[8g	know	.	.	.	C	.	.
=129	=129	=129	=129	=129	=129	=129	=129
4g]	_	2GM	.	fadeout voice	.	246.729	G:maj
4r	.	.	.	.	.	.	.
2r	.	2CM	.	fadeout voice	.	247.626	C:maj
r;	.	1r;	.	r	.	248.523	N.C.
r;	.	1r;	.	r	.	250.41	N.C.
*-	*-	*-	*-	*-	*-	*-	*-
!!!BillboardChartDate: 1983/09/10
!!!BillboardPeak: 4
!!!BillboardWeeksOnChart: 17
!!!COC: Duran Duran
!!!ENC: Nathaniel Condit-Schultz
!!!EST: Awating manual error checking and editing.
!!!OTL: Is There Something I Should Know
!!!RDF**chordsym: original McGill chord annotation + (implied pitch class set, with bass pitch in first position)
!!!RDF**harmony: **recip + pitch class of root + harmonic quality
!!!RDF**leadinstrument: original McGill primary instrumentation annotation
!!!RDF**phrase: newline = linebreak in original McGill transcription
!!!RDF**timestamp: McGill audio timestamp in seconds
!!!RDT: 2017/01/12/
!!!SampleActualRank: 45
!!!SampleID#: 1043
!!!SampleTargetRank: 46
